images/3234829.svg

<?xml version="1.0" encoding="UTF-8"?>
<svg xmlns="http://www.w3.org/2000/svg" xmlns:xlink="http://www.w3.org/1999/xlink" width="300pt" height="300pt" viewBox="0 0 300 300" version="1.1">
<defs>
<g>
<symbol overflow="visible" id="glyph0-0">
<path style="stroke:none;" d="M 0.59375 2.125 L 0.59375 -8.46875 L 6.59375 -8.46875 L 6.59375 2.125 Z M 1.265625 1.453125 L 5.9375 1.453125 L 5.9375 -7.78125 L 1.265625 -7.78125 Z M 1.265625 1.453125 "/>
</symbol>
<symbol overflow="visible" id="glyph0-1">
<path style="stroke:none;" d="M 1.171875 -8.75 L 2.765625 -8.75 L 6.65625 -1.4375 L 6.65625 -8.75 L 7.796875 -8.75 L 7.796875 0 L 6.203125 0 L 2.328125 -7.3125 L 2.328125 0 L 1.171875 0 Z M 1.171875 -8.75 "/>
</symbol>
<symbol overflow="visible" id="glyph0-2">
<path style="stroke:none;" d="M 1.171875 -8.75 L 2.359375 -8.75 L 2.359375 -5.15625 L 6.65625 -5.15625 L 6.65625 -8.75 L 7.84375 -8.75 L 7.84375 0 L 6.65625 0 L 6.65625 -4.171875 L 2.359375 -4.171875 L 2.359375 0 L 1.171875 0 Z M 1.171875 -8.75 "/>
</symbol>
<symbol overflow="visible" id="glyph0-3">
<path style="stroke:none;" d="M 6.421875 -8.46875 L 6.421875 -7.3125 C 5.972656 -7.519531 5.546875 -7.675781 5.140625 -7.78125 C 4.742188 -7.894531 4.363281 -7.953125 4 -7.953125 C 3.351562 -7.953125 2.851562 -7.828125 2.5 -7.578125 C 2.15625 -7.328125 1.984375 -6.96875 1.984375 -6.5 C 1.984375 -6.113281 2.097656 -5.820312 2.328125 -5.625 C 2.554688 -5.425781 3 -5.269531 3.65625 -5.15625 L 4.359375 -5 C 5.242188 -4.832031 5.894531 -4.535156 6.3125 -4.109375 C 6.738281 -3.691406 6.953125 -3.128906 6.953125 -2.421875 C 6.953125 -1.566406 6.664062 -0.921875 6.09375 -0.484375 C 5.53125 -0.046875 4.695312 0.171875 3.59375 0.171875 C 3.1875 0.171875 2.75 0.125 2.28125 0.03125 C 1.8125 -0.0625 1.328125 -0.203125 0.828125 -0.390625 L 0.828125 -1.609375 C 1.304688 -1.335938 1.773438 -1.132812 2.234375 -1 C 2.703125 -0.863281 3.15625 -0.796875 3.59375 -0.796875 C 4.269531 -0.796875 4.789062 -0.925781 5.15625 -1.1875 C 5.53125 -1.457031 5.71875 -1.835938 5.71875 -2.328125 C 5.71875 -2.753906 5.582031 -3.085938 5.3125 -3.328125 C 5.050781 -3.578125 4.617188 -3.757812 4.015625 -3.875 L 3.296875 -4.015625 C 2.410156 -4.191406 1.769531 -4.46875 1.375 -4.84375 C 0.988281 -5.21875 0.796875 -5.738281 0.796875 -6.40625 C 0.796875 -7.1875 1.066406 -7.796875 1.609375 -8.234375 C 2.148438 -8.679688 2.898438 -8.90625 3.859375 -8.90625 C 4.273438 -8.90625 4.691406 -8.867188 5.109375 -8.796875 C 5.535156 -8.722656 5.972656 -8.613281 6.421875 -8.46875 Z M 6.421875 -8.46875 "/>
</symbol>
<symbol overflow="visible" id="glyph0-4">
<path style="stroke:none;" d="M 4.734375 -7.953125 C 3.867188 -7.953125 3.179688 -7.628906 2.671875 -6.984375 C 2.171875 -6.347656 1.921875 -5.472656 1.921875 -4.359375 C 1.921875 -3.265625 2.171875 -2.394531 2.671875 -1.75 C 3.179688 -1.113281 3.867188 -0.796875 4.734375 -0.796875 C 5.585938 -0.796875 6.265625 -1.113281 6.765625 -1.75 C 7.273438 -2.394531 7.53125 -3.265625 7.53125 -4.359375 C 7.53125 -5.472656 7.273438 -6.347656 6.765625 -6.984375 C 6.265625 -7.628906 5.585938 -7.953125 4.734375 -7.953125 Z M 4.734375 -8.90625 C 5.953125 -8.90625 6.925781 -8.492188 7.65625 -7.671875 C 8.394531 -6.847656 8.765625 -5.742188 8.765625 -4.359375 C 8.765625 -2.984375 8.394531 -1.882812 7.65625 -1.0625 C 6.925781 -0.238281 5.953125 0.171875 4.734375 0.171875 C 3.503906 0.171875 2.519531 -0.238281 1.78125 -1.0625 C 1.039062 -1.882812 0.671875 -2.984375 0.671875 -4.359375 C 0.671875 -5.742188 1.039062 -6.847656 1.78125 -7.671875 C 2.519531 -8.492188 3.503906 -8.90625 4.734375 -8.90625 Z M 4.734375 -8.90625 "/>
</symbol>
</g>
</defs>
<g id="surface49505">
<rect x="0" y="0" width="300" height="300" style="fill:rgb(100%,100%,100%);fill-opacity:1;stroke:none;"/>
<path style="fill:none;stroke-width:1.2;stroke-linecap:butt;stroke-linejoin:miter;stroke:rgb(0%,0%,0%);stroke-opacity:1;stroke-miterlimit:10;" d="M 242.617188 234.167969 L 240.453125 204.859375 "/>
<path style="fill:none;stroke-width:1.2;stroke-linecap:butt;stroke-linejoin:miter;stroke:rgb(0%,0%,0%);stroke-opacity:1;stroke-miterlimit:10;" d="M 240.453125 204.859375 L 213.992188 192.082031 "/>
<path style="fill:none;stroke-width:1.2;stroke-linecap:butt;stroke-linejoin:miter;stroke:rgb(0%,0%,0%);stroke-opacity:1;stroke-miterlimit:10;" d="M 240.8125 197.355469 L 219.644531 187.132812 "/>
<path style="fill:none;stroke-width:1.2;stroke-linecap:butt;stroke-linejoin:miter;stroke:rgb(0%,0%,0%);stroke-opacity:1;stroke-miterlimit:10;" d="M 264.75 188.332031 L 240.453125 204.859375 "/>
<path style="fill:none;stroke-width:1.2;stroke-linecap:butt;stroke-linejoin:miter;stroke:rgb(0%,0%,0%);stroke-opacity:1;stroke-miterlimit:10;" d="M 213.992188 192.082031 L 211.824219 162.777344 "/>
<path style="fill:none;stroke-width:1.2;stroke-linecap:butt;stroke-linejoin:miter;stroke:rgb(0%,0%,0%);stroke-opacity:1;stroke-miterlimit:10;" d="M 211.824219 162.777344 L 236.121094 146.25 "/>
<path style="fill:none;stroke-width:1.2;stroke-linecap:butt;stroke-linejoin:miter;stroke:rgb(0%,0%,0%);stroke-opacity:1;stroke-miterlimit:10;" d="M 218.144531 166.839844 L 237.582031 153.617188 "/>
<path style="fill:none;stroke-width:1.2;stroke-linecap:butt;stroke-linejoin:miter;stroke:rgb(0%,0%,0%);stroke-opacity:1;stroke-miterlimit:10;" d="M 211.824219 162.777344 L 185.363281 150 "/>
<path style="fill:none;stroke-width:1.2;stroke-linecap:butt;stroke-linejoin:miter;stroke:rgb(0%,0%,0%);stroke-opacity:1;stroke-miterlimit:10;" d="M 236.121094 146.25 L 262.585938 159.027344 "/>
<path style="fill:none;stroke-width:1.2;stroke-linecap:butt;stroke-linejoin:miter;stroke:rgb(0%,0%,0%);stroke-opacity:1;stroke-miterlimit:10;" d="M 262.585938 159.027344 L 264.75 188.332031 "/>
<path style="fill:none;stroke-width:1.2;stroke-linecap:butt;stroke-linejoin:miter;stroke:rgb(0%,0%,0%);stroke-opacity:1;stroke-miterlimit:10;" d="M 255.90625 162.464844 L 257.636719 185.910156 "/>
<path style="fill:none;stroke-width:1.2;stroke-linecap:butt;stroke-linejoin:miter;stroke:rgb(0%,0%,0%);stroke-opacity:1;stroke-miterlimit:10;" d="M 185.363281 150 L 184.28125 135.347656 "/>
<path style="fill:none;stroke-width:1.2;stroke-linecap:butt;stroke-linejoin:miter;stroke:rgb(0%,0%,100%);stroke-opacity:1;stroke-miterlimit:10;" d="M 184.28125 135.347656 L 183.195312 120.695312 "/>
<path style="fill:none;stroke-width:1.2;stroke-linecap:butt;stroke-linejoin:miter;stroke:rgb(0%,0%,100%);stroke-opacity:1;stroke-miterlimit:10;" d="M 183.195312 120.695312 L 169.964844 114.304688 "/>
<path style="fill:none;stroke-width:1.2;stroke-linecap:butt;stroke-linejoin:miter;stroke:rgb(0%,0%,0%);stroke-opacity:1;stroke-miterlimit:10;" d="M 169.964844 114.304688 L 156.734375 107.917969 "/>
<path style=" stroke:none;fill-rule:nonzero;fill:rgb(100%,100%,100%);fill-opacity:1;" d="M 174.195312 113.695312 L 192.195312 113.695312 L 192.195312 127.695312 L 174.195312 127.695312 Z M 174.195312 113.695312 "/>
<g style="fill:rgb(0%,0%,100%);fill-opacity:1;">
  <use xlink:href="#glyph0-1" x="174.195312" y="124.833984"/>
  <use xlink:href="#glyph0-2" x="183.171875" y="124.833984"/>
</g>
<path style="fill:none;stroke-width:1.2;stroke-linecap:butt;stroke-linejoin:miter;stroke:rgb(0%,0%,0%);stroke-opacity:1;stroke-miterlimit:10;" d="M 156.734375 107.917969 L 155.652344 93.265625 "/>
<path style="fill:none;stroke-width:1.2;stroke-linecap:butt;stroke-linejoin:miter;stroke:rgb(0%,0%,100%);stroke-opacity:1;stroke-miterlimit:10;" d="M 155.652344 93.265625 L 154.566406 78.609375 "/>
<path style="fill:none;stroke-width:1.2;stroke-linecap:butt;stroke-linejoin:miter;stroke:rgb(0%,0%,0%);stroke-opacity:1;stroke-miterlimit:10;" d="M 149.621094 105.496094 L 148.753906 93.773438 "/>
<path style="fill:none;stroke-width:1.2;stroke-linecap:butt;stroke-linejoin:miter;stroke:rgb(0%,0%,100%);stroke-opacity:1;stroke-miterlimit:10;" d="M 148.753906 93.773438 L 147.890625 82.050781 "/>
<path style="fill:none;stroke-width:1.2;stroke-linecap:butt;stroke-linejoin:miter;stroke:rgb(0%,0%,0%);stroke-opacity:1;stroke-miterlimit:10;" d="M 132.4375 124.445312 L 156.734375 107.917969 "/>
<path style="fill:none;stroke-width:1.2;stroke-linecap:butt;stroke-linejoin:miter;stroke:rgb(0%,0%,100%);stroke-opacity:1;stroke-miterlimit:10;" d="M 154.566406 78.609375 L 141.335938 72.222656 "/>
<path style="fill:none;stroke-width:1.2;stroke-linecap:butt;stroke-linejoin:miter;stroke:rgb(0%,0%,0%);stroke-opacity:1;stroke-miterlimit:10;" d="M 141.335938 72.222656 L 128.105469 65.832031 "/>
<path style=" stroke:none;fill-rule:nonzero;fill:rgb(100%,100%,100%);fill-opacity:1;" d="M 150.566406 71.609375 L 159.566406 71.609375 L 159.566406 85.609375 L 150.566406 85.609375 Z M 150.566406 71.609375 "/>
<g style="fill:rgb(0%,0%,100%);fill-opacity:1;">
  <use xlink:href="#glyph0-1" x="150.566406" y="82.748047"/>
</g>
<path style="fill:none;stroke-width:1.2;stroke-linecap:butt;stroke-linejoin:miter;stroke:rgb(0%,0%,0%);stroke-opacity:1;stroke-miterlimit:10;" d="M 128.105469 65.832031 L 115.957031 74.097656 "/>
<path style="fill:none;stroke-width:1.2;stroke-linecap:butt;stroke-linejoin:miter;stroke:rgb(0%,0%,100%);stroke-opacity:1;stroke-miterlimit:10;" d="M 115.957031 74.097656 L 103.808594 82.363281 "/>
<path style="fill:none;stroke-width:1.2;stroke-linecap:butt;stroke-linejoin:miter;stroke:rgb(0%,0%,0%);stroke-opacity:1;stroke-miterlimit:10;" d="M 129.566406 73.203125 L 119.847656 79.816406 "/>
<path style="fill:none;stroke-width:1.2;stroke-linecap:butt;stroke-linejoin:miter;stroke:rgb(0%,0%,100%);stroke-opacity:1;stroke-miterlimit:10;" d="M 119.847656 79.816406 L 110.128906 86.425781 "/>
<path style="fill:none;stroke-width:1.2;stroke-linecap:butt;stroke-linejoin:miter;stroke:rgb(0%,0%,100%);stroke-opacity:1;stroke-miterlimit:10;" d="M 103.808594 82.363281 L 104.890625 97.015625 "/>
<path style="fill:none;stroke-width:1.2;stroke-linecap:butt;stroke-linejoin:miter;stroke:rgb(0%,0%,0%);stroke-opacity:1;stroke-miterlimit:10;" d="M 104.890625 97.015625 L 105.976562 111.667969 "/>
<path style=" stroke:none;fill-rule:nonzero;fill:rgb(100%,100%,100%);fill-opacity:1;" d="M 99.808594 75.363281 L 108.808594 75.363281 L 108.808594 89.363281 L 99.808594 89.363281 Z M 99.808594 75.363281 "/>
<g style="fill:rgb(0%,0%,100%);fill-opacity:1;">
  <use xlink:href="#glyph0-1" x="99.808594" y="86.501953"/>
</g>
<path style="fill:none;stroke-width:1.2;stroke-linecap:butt;stroke-linejoin:miter;stroke:rgb(0%,0%,0%);stroke-opacity:1;stroke-miterlimit:10;" d="M 105.976562 111.667969 L 132.4375 124.445312 "/>
<path style="fill:none;stroke-width:1.2;stroke-linecap:butt;stroke-linejoin:miter;stroke:rgb(0%,0%,0%);stroke-opacity:1;stroke-miterlimit:10;" d="M 111.628906 106.71875 L 132.796875 116.941406 "/>
<path style="fill:none;stroke-width:1.2;stroke-linecap:butt;stroke-linejoin:miter;stroke:rgb(0%,0%,0%);stroke-opacity:1;stroke-miterlimit:10;" d="M 132.4375 124.445312 L 134.601562 153.75 "/>
<path style="fill:none;stroke-width:1.2;stroke-linecap:butt;stroke-linejoin:miter;stroke:rgb(0%,0%,0%);stroke-opacity:1;stroke-miterlimit:10;" d="M 134.601562 153.75 L 110.304688 170.28125 "/>
<path style="fill:none;stroke-width:1.2;stroke-linecap:butt;stroke-linejoin:miter;stroke:rgb(0%,0%,0%);stroke-opacity:1;stroke-miterlimit:10;" d="M 136.0625 161.121094 L 116.625 174.34375 "/>
<path style="fill:none;stroke-width:1.2;stroke-linecap:butt;stroke-linejoin:miter;stroke:rgb(0%,0%,0%);stroke-opacity:1;stroke-miterlimit:10;" d="M 161.066406 166.527344 L 134.601562 153.75 "/>
<path style="fill:none;stroke-width:1.2;stroke-linecap:butt;stroke-linejoin:miter;stroke:rgb(0%,0%,0%);stroke-opacity:1;stroke-miterlimit:10;" d="M 110.304688 170.28125 L 112.472656 199.585938 "/>
<path style="fill:none;stroke-width:1.2;stroke-linecap:butt;stroke-linejoin:miter;stroke:rgb(0%,0%,0%);stroke-opacity:1;stroke-miterlimit:10;" d="M 112.472656 199.585938 L 138.933594 212.363281 "/>
<path style="fill:none;stroke-width:1.2;stroke-linecap:butt;stroke-linejoin:miter;stroke:rgb(0%,0%,0%);stroke-opacity:1;stroke-miterlimit:10;" d="M 118.125 194.636719 L 139.292969 204.859375 "/>
<path style="fill:none;stroke-width:1.2;stroke-linecap:butt;stroke-linejoin:miter;stroke:rgb(0%,0%,0%);stroke-opacity:1;stroke-miterlimit:10;" d="M 112.472656 199.585938 L 100.324219 207.851562 "/>
<path style="fill:none;stroke-width:1.2;stroke-linecap:butt;stroke-linejoin:miter;stroke:rgb(0%,0%,100%);stroke-opacity:1;stroke-miterlimit:10;" d="M 100.324219 207.851562 L 88.175781 216.113281 "/>
<path style="fill:none;stroke-width:1.2;stroke-linecap:butt;stroke-linejoin:miter;stroke:rgb(0%,0%,0%);stroke-opacity:1;stroke-miterlimit:10;" d="M 138.933594 212.363281 L 163.230469 195.835938 "/>
<path style="fill:none;stroke-width:1.2;stroke-linecap:butt;stroke-linejoin:miter;stroke:rgb(0%,0%,0%);stroke-opacity:1;stroke-miterlimit:10;" d="M 163.230469 195.835938 L 161.066406 166.527344 "/>
<path style="fill:none;stroke-width:1.2;stroke-linecap:butt;stroke-linejoin:miter;stroke:rgb(0%,0%,0%);stroke-opacity:1;stroke-miterlimit:10;" d="M 156.121094 193.414062 L 154.386719 169.96875 "/>
<path style="fill:none;stroke-width:1.2;stroke-linecap:butt;stroke-linejoin:miter;stroke:rgb(0%,0%,100%);stroke-opacity:1;stroke-miterlimit:10;" d="M 88.175781 216.113281 L 74.945312 209.726562 "/>
<path style="fill:none;stroke-width:1.2;stroke-linecap:butt;stroke-linejoin:miter;stroke:rgb(80%,80%,0%);stroke-opacity:1;stroke-miterlimit:10;" d="M 74.945312 209.726562 L 61.710938 203.335938 "/>
<path style=" stroke:none;fill-rule:nonzero;fill:rgb(100%,100%,100%);fill-opacity:1;" d="M 79.175781 209.113281 L 97.175781 209.113281 L 97.175781 223.113281 L 79.175781 223.113281 Z M 79.175781 209.113281 "/>
<g style="fill:rgb(0%,0%,100%);fill-opacity:1;">
  <use xlink:href="#glyph0-1" x="79.175781" y="220.251953"/>
  <use xlink:href="#glyph0-2" x="88.152344" y="220.251953"/>
</g>
<path style="fill:none;stroke-width:1.2;stroke-linecap:butt;stroke-linejoin:miter;stroke:rgb(80%,80%,0%);stroke-opacity:1;stroke-miterlimit:10;" d="M 64.824219 204.839844 L 71.214844 191.609375 "/>
<path style="fill:none;stroke-width:1.2;stroke-linecap:butt;stroke-linejoin:miter;stroke:rgb(100%,0%,0%);stroke-opacity:1;stroke-miterlimit:10;" d="M 71.214844 191.609375 L 77.601562 178.378906 "/>
<path style="fill:none;stroke-width:1.2;stroke-linecap:butt;stroke-linejoin:miter;stroke:rgb(80%,80%,0%);stroke-opacity:1;stroke-miterlimit:10;" d="M 58.597656 201.832031 L 64.988281 188.601562 "/>
<path style="fill:none;stroke-width:1.2;stroke-linecap:butt;stroke-linejoin:miter;stroke:rgb(100%,0%,0%);stroke-opacity:1;stroke-miterlimit:10;" d="M 64.988281 188.601562 L 71.375 175.371094 "/>
<path style="fill:none;stroke-width:1.2;stroke-linecap:butt;stroke-linejoin:miter;stroke:rgb(80%,80%,0%);stroke-opacity:1;stroke-miterlimit:10;" d="M 58.597656 201.832031 L 52.210938 215.066406 "/>
<path style="fill:none;stroke-width:1.2;stroke-linecap:butt;stroke-linejoin:miter;stroke:rgb(100%,0%,0%);stroke-opacity:1;stroke-miterlimit:10;" d="M 52.210938 215.066406 L 45.820312 228.296875 "/>
<path style="fill:none;stroke-width:1.2;stroke-linecap:butt;stroke-linejoin:miter;stroke:rgb(80%,80%,0%);stroke-opacity:1;stroke-miterlimit:10;" d="M 64.824219 204.839844 L 58.4375 218.070312 "/>
<path style="fill:none;stroke-width:1.2;stroke-linecap:butt;stroke-linejoin:miter;stroke:rgb(100%,0%,0%);stroke-opacity:1;stroke-miterlimit:10;" d="M 58.4375 218.070312 L 52.046875 231.304688 "/>
<path style="fill:none;stroke-width:1.2;stroke-linecap:butt;stroke-linejoin:miter;stroke:rgb(80%,80%,0%);stroke-opacity:1;stroke-miterlimit:10;" d="M 61.710938 203.335938 L 48.480469 196.949219 "/>
<path style="fill:none;stroke-width:1.2;stroke-linecap:butt;stroke-linejoin:miter;stroke:rgb(0%,0%,0%);stroke-opacity:1;stroke-miterlimit:10;" d="M 48.480469 196.949219 L 35.25 190.558594 "/>
<path style=" stroke:none;fill-rule:nonzero;fill:rgb(100%,100%,100%);fill-opacity:1;" d="M 57.710938 196.335938 L 65.710938 196.335938 L 65.710938 210.335938 L 57.710938 210.335938 Z M 57.710938 196.335938 "/>
<g style="fill:rgb(80%,80%,0%);fill-opacity:1;">
  <use xlink:href="#glyph0-3" x="57.710938" y="207.474609"/>
</g>
<path style=" stroke:none;fill-rule:nonzero;fill:rgb(100%,100%,100%);fill-opacity:1;" d="M 69.488281 169.875 L 79.488281 169.875 L 79.488281 183.875 L 69.488281 183.875 Z M 69.488281 169.875 "/>
<g style="fill:rgb(100%,0%,0%);fill-opacity:1;">
  <use xlink:href="#glyph0-4" x="69.488281" y="181.013672"/>
</g>
<path style=" stroke:none;fill-rule:nonzero;fill:rgb(100%,100%,100%);fill-opacity:1;" d="M 38.933594 222.800781 L 48.933594 222.800781 L 48.933594 236.800781 L 38.933594 236.800781 Z M 38.933594 222.800781 "/>
<g style="fill:rgb(100%,0%,0%);fill-opacity:1;">
  <use xlink:href="#glyph0-4" x="38.933594" y="233.939453"/>
</g>
</g>
</svg>

<svg xmlns="http://www.w3.org/2000/svg" xmlns:xlink="http://www.w3.org/1999/xlink" width="300pt" height="300pt" viewBox="0 0 300 300"><defs><symbol overflow="visible"><path d="M.594 2.125V-8.47h6V2.126zm.672-.672h4.671V-7.78h-4.67zm0 0"/></symbol><symbol overflow="visible" id="a"><path d="M1.172-8.75h1.594l3.89 7.313V-8.75h1.14V0H6.204L2.328-7.313V0H1.172zm0 0"/></symbol><symbol overflow="visible" id="b"><path d="M1.172-8.75H2.36v3.594h4.296V-8.75h1.188V0H6.656v-4.172H2.36V0H1.17zm0 0"/></symbol><symbol overflow="visible" id="c"><path d="M6.422-8.47v1.158c-.45-.208-.875-.364-1.28-.47-.4-.113-.78-.17-1.142-.17-.648 0-1.148.124-1.5.374-.344.25-.516.61-.516 1.078 0 .387.114.68.344.875.227.2.672.355 1.328.47L4.36-5c.882.168 1.535.465 1.952.89.426.42.64.98.64 1.688 0 .856-.288 1.5-.858 1.938-.563.437-1.4.656-2.5.656-.406 0-.844-.047-1.313-.14C1.814-.064 1.33-.204.83-.392v-1.22c.477.274.945.477 1.406.61.47.137.922.203 1.36.203.676 0 1.195-.13 1.562-.39.375-.27.563-.65.563-1.14 0-.427-.138-.76-.407-1-.262-.25-.696-.43-1.297-.548l-.72-.14c-.886-.176-1.526-.454-1.92-.83-.388-.374-.58-.893-.58-1.56 0-.782.27-1.392.813-1.83.538-.445 1.288-.67 2.25-.67.413 0 .83.038 1.25.108.425.074.863.184 1.312.328zm0 0"/></symbol><symbol overflow="visible" id="d"><path d="M4.734-7.953c-.867 0-1.554.324-2.062.97-.5.635-.75 1.51-.75 2.624 0 1.094.25 1.965.75 2.61.508.637 1.195.953 2.062.953.852 0 1.532-.316 2.032-.953.507-.645.765-1.516.765-2.61 0-1.113-.257-1.988-.764-2.624-.5-.645-1.18-.97-2.032-.97zm0-.953c1.22 0 2.192.414 2.922 1.234.74.824 1.11 1.93 1.11 3.313 0 1.376-.37 2.477-1.11 3.298C6.926-.24 5.953.17 4.734.17c-1.23 0-2.214-.41-2.953-1.234C1.04-1.882.673-2.984.673-4.36c0-1.382.367-2.488 1.11-3.312.738-.82 1.722-1.234 2.952-1.234zm0 0"/></symbol></defs><g><path fill="#fff" d="M0 0h300v300H0z"/><path d="M242.617 234.168l-2.164-29.31M240.453 204.86l-26.46-12.778M240.813 197.355l-21.168-10.222M264.75 188.332l-24.297 16.527M213.992 192.082l-2.168-29.305M211.824 162.777l24.297-16.527M218.145 166.84l19.437-13.223M211.824 162.777L185.364 150M236.12 146.25l26.466 12.777M262.586 159.027l2.164 29.305M255.906 162.465l1.73 23.445M185.363 150l-1.082-14.652" stroke-width="1.2" stroke="#000" stroke-miterlimit="10" fill="none"/><path d="M184.28 135.348l-1.085-14.653M183.195 120.695l-13.23-6.39" stroke-width="1.2" stroke="#00f" stroke-miterlimit="10" fill="none"/><path d="M169.965 114.305l-13.23-6.387" stroke-width="1.2" stroke="#000" stroke-miterlimit="10" fill="none"/><path d="M174.195 113.695h18v14h-18zm0 0" fill="#fff"/><g fill="#00f"><use xlink:href="#a" x="174.195" y="124.834"/><use xlink:href="#b" x="183.172" y="124.834"/></g><path d="M156.734 107.918l-1.082-14.652" stroke-width="1.2" stroke="#000" stroke-miterlimit="10" fill="none"/><path d="M155.652 93.266l-1.086-14.657" stroke-width="1.2" stroke="#00f" stroke-miterlimit="10" fill="none"/><path d="M149.62 105.496l-.866-11.723" stroke-width="1.2" stroke="#000" stroke-miterlimit="10" fill="none"/><path d="M148.754 93.773l-.863-11.722" stroke-width="1.2" stroke="#00f" stroke-miterlimit="10" fill="none"/><path d="M132.438 124.445l24.296-16.527" stroke-width="1.2" stroke="#000" stroke-miterlimit="10" fill="none"/><path d="M154.566 78.61l-13.23-6.387" stroke-width="1.2" stroke="#00f" stroke-miterlimit="10" fill="none"/><path d="M141.336 72.223l-13.23-6.39" stroke-width="1.2" stroke="#000" stroke-miterlimit="10" fill="none"/><path d="M150.566 71.61h9v14h-9zm0 0" fill="#fff"/><use xlink:href="#a" x="150.566" y="82.748" fill="#00f"/><path d="M128.105 65.832l-12.148 8.266" stroke-width="1.2" stroke="#000" stroke-miterlimit="10" fill="none"/><path d="M115.957 74.098l-12.148 8.265" stroke-width="1.2" stroke="#00f" stroke-miterlimit="10" fill="none"/><path d="M129.566 73.203l-9.718 6.613" stroke-width="1.2" stroke="#000" stroke-miterlimit="10" fill="none"/><path d="M119.848 79.816l-9.72 6.61M103.81 82.363l1.08 14.653" stroke-width="1.2" stroke="#00f" stroke-miterlimit="10" fill="none"/><path d="M104.89 97.016l1.087 14.652" stroke-width="1.2" stroke="#000" stroke-miterlimit="10" fill="none"/><path d="M99.81 75.363h9v14h-9zm0 0" fill="#fff"/><use xlink:href="#a" x="99.809" y="86.502" fill="#00f"/><path d="M105.977 111.668l26.46 12.777M111.63 106.72l21.167 10.22M132.438 124.445l2.164 29.305M134.602 153.75l-24.297 16.53M136.063 161.12l-19.438 13.224M161.066 166.527l-26.464-12.777M110.305 170.28l2.168 29.306M112.473 199.586l26.46 12.777M118.125 194.637l21.168 10.222M112.473 199.586l-12.15 8.266" stroke-width="1.2" stroke="#000" stroke-miterlimit="10" fill="none"/><path d="M100.324 207.852l-12.148 8.26" stroke-width="1.2" stroke="#00f" stroke-miterlimit="10" fill="none"/><path d="M138.934 212.363l24.296-16.527M163.23 195.836l-2.164-29.31M156.12 193.414l-1.733-23.445" stroke-width="1.2" stroke="#000" stroke-miterlimit="10" fill="none"/><path d="M88.176 216.113l-13.23-6.386" stroke-width="1.2" stroke="#00f" stroke-miterlimit="10" fill="none"/><path d="M74.945 209.727l-13.234-6.39" stroke-width="1.2" stroke="#cc0" stroke-miterlimit="10" fill="none"/><path d="M79.176 209.113h18v14h-18zm0 0" fill="#fff"/><g fill="#00f"><use xlink:href="#a" x="79.176" y="220.252"/><use xlink:href="#b" x="88.152" y="220.252"/></g><path d="M64.824 204.84l6.39-13.23" stroke-width="1.2" stroke="#cc0" stroke-miterlimit="10" fill="none"/><path d="M71.215 191.61l6.387-13.23" stroke-width="1.2" stroke="#f00" stroke-miterlimit="10" fill="none"/><path d="M58.598 201.832l6.39-13.23" stroke-width="1.2" stroke="#cc0" stroke-miterlimit="10" fill="none"/><path d="M64.988 188.602l6.387-13.23" stroke-width="1.2" stroke="#f00" stroke-miterlimit="10" fill="none"/><path d="M58.598 201.832l-6.387 13.234" stroke-width="1.2" stroke="#cc0" stroke-miterlimit="10" fill="none"/><path d="M52.21 215.066l-6.39 13.23" stroke-width="1.2" stroke="#f00" stroke-miterlimit="10" fill="none"/><path d="M64.824 204.84l-6.386 13.23" stroke-width="1.2" stroke="#cc0" stroke-miterlimit="10" fill="none"/><path d="M58.438 218.07l-6.39 13.235" stroke-width="1.2" stroke="#f00" stroke-miterlimit="10" fill="none"/><path d="M61.71 203.336l-13.23-6.387" stroke-width="1.2" stroke="#cc0" stroke-miterlimit="10" fill="none"/><path d="M48.48 196.95l-13.23-6.39" stroke-width="1.2" stroke="#000" stroke-miterlimit="10" fill="none"/><path d="M57.71 196.336h8v14h-8zm0 0" fill="#fff"/><use xlink:href="#c" x="57.711" y="207.475" fill="#cc0"/><path d="M69.488 169.875h10v14h-10zm0 0" fill="#fff"/><use xlink:href="#d" x="69.488" y="181.014" fill="#f00"/><path d="M38.934 222.8h10v14h-10zm0 0" fill="#fff"/><use xlink:href="#d" x="38.934" y="233.939" fill="#f00"/></g></svg>
